icons/op-drag-handle-24.svg

<svg width="24" height="24" viewBox="0 0 24 24" fill="none" xmlns="http://www.w3.org/2000/svg">
<path d="M12.9801 4.00003V6.92301H16V4.00003H12.9801ZM8 4.01692V6.9399H11.0199V4.01692H8ZM12.9801 10.499V13.422H16V10.499H12.9801ZM8 10.5159V13.4389H11.0199V10.5159H8ZM12.9801 17.0602V19.9831H16V17.0602H12.9801ZM8 17.077V20H11.0199V17.077H8Z" fill="black"/>
</svg>

<svg xmlns="http://www.w3.org/2000/svg" width="24" height="24" viewBox="0 0 24 24"><path d="M12.98 4v2.923H16V4h-3.02ZM8 4.017V6.94h3.02V4.017H8Zm4.98 6.482v2.923H16v-2.923h-3.02ZM8 10.516v2.923h3.02v-2.923H8Zm4.98 6.544v2.923H16V17.06h-3.02ZM8 17.077V20h3.02v-2.923H8Z"/></svg>
